static/cards/FrenchDeck/default/card_hearts_02.svg

<svg width="219" height="304" viewBox="0 0 219 304" fill="none" xmlns="http://www.w3.org/2000/svg">
<g filter="url(#filter0_d_18_654)">
<g clip-path="url(#clip0_18_654)">
<rect x="8" y="4" width="203" height="288" rx="10" fill="white"/>
<path d="M17.2319 42.1382C17.2319 41.4175 17.5723 40.8569 18.7534 39.5156L27.0815 29.9863C29.3438 27.4038 30.2046 25.7222 30.2046 23.8403C30.2046 21.0176 28.1826 19.1357 25.1396 19.1357C22.5571 19.1357 20.6553 20.6772 20.0547 23.2798C19.7744 24.3408 19.2139 24.8813 18.3931 24.8813C17.4121 24.8813 16.7715 24.1406 16.7715 23.0596C16.7715 19.6562 20.0747 16.0928 25.3599 16.0928C30.2847 16.0928 33.748 19.2158 33.748 23.6201C33.748 26.2227 32.7271 28.1245 29.1235 32.2285L21.7163 40.6968V40.937H32.8271C33.8882 40.937 34.5688 41.5176 34.5688 42.4785C34.5688 43.4194 33.9282 44 32.8271 44H19.6143C18.1528 44 17.2319 43.2993 17.2319 42.1382Z" fill="#BC1E24"/>
<path d="M21.7347 53.0006C24.4518 53.042 25.5069 55.3984 25.8537 56.5094C25.8888 56.6218 26.1122 56.6217 26.1472 56.5093C26.4938 55.3983 27.5482 53.042 30.2653 53.0006C33.8229 52.9462 36.4995 56.9292 34.0587 60.9289C31.8832 64.4939 26.0821 71 26 71C25.9165 71 20.1169 64.4943 17.9413 60.9289C15.5005 56.9291 18.177 52.9462 21.7347 53.0006Z" fill="#BC1E24"/>
<path d="M201.768 253.862C201.768 254.583 201.428 255.143 200.247 256.484L191.918 266.014C189.656 268.596 188.795 270.278 188.795 272.16C188.795 274.982 190.817 276.864 193.86 276.864C196.443 276.864 198.345 275.323 198.945 272.72C199.226 271.659 199.786 271.119 200.607 271.119C201.588 271.119 202.229 271.859 202.229 272.94C202.229 276.344 198.925 279.907 193.64 279.907C188.715 279.907 185.252 276.784 185.252 272.38C185.252 269.777 186.273 267.875 189.876 263.771L197.284 255.303L197.284 255.063L186.173 255.063C185.112 255.063 184.431 254.482 184.431 253.521C184.431 252.581 185.072 252 186.173 252L199.386 252C200.847 252 201.768 252.701 201.768 253.862Z" fill="#BC1E24"/>
<path d="M197.265 242.999C194.548 242.958 193.493 240.602 193.146 239.491C193.111 239.378 192.888 239.378 192.853 239.491C192.506 240.602 191.452 242.958 188.735 242.999C185.177 243.054 182.501 239.071 184.941 235.071C187.117 231.506 192.918 225 193 225C193.083 225 198.883 231.506 201.059 235.071C203.499 239.071 200.823 243.054 197.265 242.999Z" fill="#BC1E24"/>
<path d="M99.2206 30.2514C105.769 30.3516 108.312 36.0461 109.148 38.731C109.232 39.0026 109.77 39.0025 109.855 38.7309C110.69 36.0459 113.231 30.3516 119.779 30.2514C128.353 30.1199 134.804 39.7455 128.922 49.4115C123.679 58.0269 109.698 73.75 109.5 73.75C109.299 73.7499 95.3218 58.0278 90.0785 49.4115C84.1963 39.7454 90.6467 30.1199 99.2206 30.2514Z" fill="#BC1E24"/>
<path d="M99.2206 265.749C105.769 265.648 108.312 259.954 109.148 257.269C109.232 256.997 109.77 256.997 109.855 257.269C110.69 259.954 113.231 265.648 119.779 265.749C128.353 265.88 134.804 256.255 128.922 246.589C123.679 237.973 109.698 222.25 109.5 222.25C109.299 222.25 95.3218 237.972 90.0785 246.589C84.1963 256.255 90.6467 265.88 99.2206 265.749Z" fill="#BC1E24"/>
</g>
</g>
<defs>
<filter id="filter0_d_18_654" x="0" y="0" width="219" height="304" filterUnits="userSpaceOnUse" color-interpolation-filters="sRGB">
<feFlood flood-opacity="0" result="BackgroundImageFix"/>
<feColorMatrix in="SourceAlpha" type="matrix" values="0 0 0 0 0 0 0 0 0 0 0 0 0 0 0 0 0 0 127 0" result="hardAlpha"/>
<feOffset dy="4"/>
<feGaussianBlur stdDeviation="4"/>
<feComposite in2="hardAlpha" operator="out"/>
<feColorMatrix type="matrix" values="0 0 0 0 0.614771 0 0 0 0 0.70094 0 0 0 0 0.806257 0 0 0 1 0"/>
<feBlend mode="normal" in2="BackgroundImageFix" result="effect1_dropShadow_18_654"/>
<feBlend mode="normal" in="SourceGraphic" in2="effect1_dropShadow_18_654" result="shape"/>
</filter>
<clipPath id="clip0_18_654">
<rect x="8" y="4" width="203" height="288" rx="10" fill="white"/>
</clipPath>
</defs>
</svg>

<svg xmlns="http://www.w3.org/2000/svg" width="219" height="304" fill="none" viewBox="0 0 219 304"><g filter="url(#a)"><g clip-path="url(#b)"><rect width="203" height="288" x="8" y="4" fill="#fff" rx="10"/><path fill="#bc1e24" d="M17.232 42.138c0-.72.34-1.281 1.521-2.622l8.328-9.53c2.263-2.582 3.124-4.264 3.124-6.146 0-2.822-2.022-4.704-5.065-4.704-2.583 0-4.485 1.541-5.085 4.144-.28 1.06-.841 1.601-1.662 1.601-.98 0-1.622-.74-1.622-1.821 0-3.404 3.304-6.967 8.589-6.967 4.925 0 8.388 3.123 8.388 7.527 0 2.603-1.02 4.505-4.624 8.608l-7.408 8.469v.24h11.111c1.061 0 1.742.58 1.742 1.541 0 .941-.64 1.522-1.742 1.522H19.614c-1.461 0-2.382-.7-2.382-1.862M21.735 53c2.717.042 3.772 2.398 4.119 3.51.035.112.258.112.293 0 .347-1.112 1.401-3.468 4.118-3.51 3.558-.054 6.234 3.93 3.794 7.929C31.883 64.494 26.082 71 26 71c-.084 0-5.883-6.506-8.059-10.071-2.44-4 .236-7.983 3.794-7.928M201.768 253.862c0 .721-.34 1.281-1.521 2.622l-8.329 9.53c-2.262 2.582-3.123 4.264-3.123 6.146 0 2.822 2.022 4.704 5.065 4.704 2.583 0 4.485-1.541 5.085-4.144.281-1.061.841-1.601 1.662-1.601.981 0 1.622.74 1.622 1.821 0 3.404-3.304 6.967-8.589 6.967-4.925 0-8.388-3.123-8.388-7.527 0-2.603 1.021-4.505 4.624-8.609l7.408-8.468v-.24h-11.111c-1.061 0-1.742-.581-1.742-1.542 0-.94.641-1.521 1.742-1.521h13.213c1.461 0 2.382.701 2.382 1.862M197.265 242.999c-2.717-.041-3.772-2.397-4.119-3.508-.035-.113-.258-.113-.293 0-.347 1.111-1.401 3.467-4.118 3.508-3.558.055-6.234-3.928-3.794-7.928C187.117 231.506 192.918 225 193 225c.083 0 5.883 6.506 8.059 10.071 2.44 4-.236 7.983-3.794 7.928M99.22 30.251c6.549.1 9.092 5.795 9.928 8.48.084.272.622.271.707 0 .835-2.685 3.376-8.38 9.924-8.48 8.574-.131 15.025 9.494 9.143 19.16-5.243 8.616-19.224 24.339-19.422 24.339-.201 0-14.178-15.722-19.421-24.339-5.883-9.666.568-19.291 9.142-19.16M99.22 265.749c6.549-.101 9.092-5.795 9.928-8.48.084-.272.622-.272.707 0 .835 2.685 3.376 8.379 9.924 8.48 8.574.131 15.025-9.494 9.143-19.16-5.243-8.616-19.224-24.339-19.422-24.339-.201 0-14.178 15.722-19.421 24.339-5.883 9.666.568 19.291 9.142 19.16"/></g></g><defs><clipPath id="b"><rect width="203" height="288" x="8" y="4" fill="#fff" rx="10"/></clipPath><filter id="a" width="219" height="304" x="0" y="0" color-interpolation-filters="sRGB" filterUnits="userSpaceOnUse"><feFlood flood-opacity="0" result="BackgroundImageFix"/><feColorMatrix in="SourceAlpha" result="hardAlpha" values="0 0 0 0 0 0 0 0 0 0 0 0 0 0 0 0 0 0 127 0"/><feOffset dy="4"/><feGaussianBlur stdDeviation="4"/><feComposite in2="hardAlpha" operator="out"/><feColorMatrix values="0 0 0 0 0.614771 0 0 0 0 0.70094 0 0 0 0 0.806257 0 0 0 1 0"/><feBlend in2="BackgroundImageFix" result="effect1_dropShadow_18_654"/><feBlend in="SourceGraphic" in2="effect1_dropShadow_18_654" result="shape"/></filter></defs></svg>
